// Complements a color.
// ColorComp.osl, by Zap Andersson
// Modified: 2019-11-22
// Copyright 2019 Autodesk Inc, All rights reserved. This file is licensed under Apache 2.0 license
//    https://github.com/ADN-DevTech/3dsMax-OSL-Shaders/blob/master/LICENSE.txt

shader ColorComp
[[ string help = "Inverts (Complements) a color number (1 - Input)",
   string label= "Invert (color)",
   string category = "Math Color" ]]
(
	color Input = 0.0,
	output color Out = 0.0,
)
{
	Out = 1 - Input;
}
