// Returns the minimum of two floats
// FloatMin.osl, by Zap Andersson
// Modified: 2019-11-26
// Copyright 2019 Autodesk Inc, All rights reserved. This file is licensed under Apache 2.0 license
//    https://github.com/ADN-DevTech/3dsMax-OSL-Shaders/blob/master/LICENSE.txt

shader FloatMin
[[ string help = "Returns the minimum of two floats",
   string label= "Mininimum",
   string category = "Math Float" ]]
(
	float A = 0.5,
	float B = 0.5,
	output float Out = 0.0,
)
{
	Out = min(A, B);
}