// E Exponent.
// FloatExp.osl, by Zap Andersson
// Modified: 2019-11-26
// Copyright 2019 Autodesk Inc, All rights reserved. This file is licensed under Apache 2.0 license
//    https://github.com/ADN-DevTech/3dsMax-OSL-Shaders/blob/master/LICENSE.txt

shader FloatExp
[[ string help = "Computes e<sup>X</sup>",
   string label= "Exp",
   string category = "Math Float" ]]
(
	float X = 0.0,
	output float Out = 0.0,
)
{
	Out = exp(X);
}
