// Takes the Square Root of a float.
// FloatSqrt.osl, by Zap Andersson
// Modified: 2018-02-08
// Copyright 2018 Autodesk Inc, All rights reserved. This file is licensed under Apache 2.0 license
//    https://github.com/ADN-DevTech/3dsMax-OSL-Shaders/blob/master/LICENSE.txt

shader FloatSqrt
[[ string help = "Computes Square Root",
   string label= "Square Root",
   string category = "Math\Float" ]]
(
	float Input = 0.0,
	output float Out = 0.0,
)
{
	Out = sqrt(Input);
}
