// Length of a vector
// VectorLength.osl, by Zap Andersson
// Modified: 2019-11-26
// Copyright 2019 Autodesk Inc, All rights reserved. This file is licensed under Apache 2.0 license
//    https://github.com/ADN-DevTech/3dsMax-OSL-Shaders/blob/master/LICENSE.txt

shader VectorLength
[[ string help     = "Length of a Vector",
   string label    = "Length (vector)",
   string category = "Math Vector" ]]
(
	vector Input = 0.0,
	output float Out = 0.0,
)
{
	Out = length(Input);
}
