// Invert a vector
// VectorInv.osl, by Zap Andersson
// Modified: 2019-11-26
// Copyright 2019 Autodesk Inc, All rights reserved. This file is licensed under Apache 2.0 license
//    https://github.com/ADN-DevTech/3dsMax-OSL-Shaders/blob/master/LICENSE.txt

shader VectorInv
[[ string help     = "Invert a Vector",
   string label    = "Invert (vector)",
   string category = "Math Vector" ]]
(
	vector Input = 0.0,
	output vector Out = 0.0,
)
{
	Out = -Input;
}
